!!!!SEGMENT: pl-kk--kk-i-2--021-004_lilius-franciszek--missa-a-4-voci-sanctus.krn
!!!cenid: 16xx:1637
!!!COM: Lilius, Franciszek
!!!COM-rismID: pe30020509
!!!CDT: ~1600-1657
!!!CNT: Polish
!!!OPR: Missa a 4 voci
!!!OTL: Sanctus
!!!OMV: 004
!!!PDT:
!!!AGN: Sacred; Mass
!!!YEC: Copyright 2022 Narodowy Instytut Fryderyka Chopina (https://polishscores.org)
!!!YEM: License CC-BY-4.0 (https://creativecommons.org/licenses/by/4.0)
!!!SMS-siglum: PL-Kk
!!!SMS-shelfmark: Kk.I.2
!!!SMS-shelfwork: 021-004 M
!!!NIFC-rismSourceID: 300258016
!!!NIFC-rismChildID: 300258037
!!!NIFC-islandoraID: pl-kk:750
!!!URL-pdf-islandora: https://repozytorium.nifc.pl/islandora/object/pl-kk%3A750/datastream/PDF/view
!!!URL-scan: https://polish.musicsources.pl/pl/lokalizacje/galeria/rekopisy/5828 @EN{Scan on Polish Music Sources Website} @PL{Skany w portalu Dziedzictwo Muzyki Polskiej w otwartym dostępie}
!!!IIIF: https://repozytorium.nifc.pl/islandora/object/pl-kk%3A750/datastream/IIIF/view
!!!ONB-nifc: Części mszy: Kyrie, Gloria, Credo, Sanctus, Benedictus, Agnus Dei; skany: C: 0048-0049; A: 0151; T: 0253; B: 0352;
!!!AIN: 1 alto 1 bass 2 tenor
!!!key: G:mix
**kern	**text	**kern	**text	**kern	**text	**kern	**text
*part4	*	*part3	*	*part2	*	*part1	*
*staff4	*	*staff3	*	*staff2	*	*staff1	*
*I"BASVS	*	*I"TENOR	*	*I"ALTVS	*	*I"DISCANTVS	*
*I'B	*	*I'T	*	*I'T	*	*I'A	*
*Ibass	*	*Itenor	*	*Itenor	*	*Ialto	*
*ICvox	*	*ICvox	*	*ICvox	*	*ICvox	*
*clefF4	*	*clefC4	*	*clefC4	*	*clefC3	*
*k[b-]	*	*k[b-]	*	*k[b-]	*	*k[b-]	*
*G:mix	*	*G:mix	*	*G:mix	*	*G:mix	*
*M2/1	*	*M2/1	*	*M2/1	*	*M2/1	*
*met(C|)	*	*met(C|)	*	*met(C|)	*	*met(C|)	*
=1-	=1-	=1-	=1-	=1-	=1-	=1-	=1-
*xywh-#352:1700,841,5959,1016	*	*xywh-#253:7901,1515,6310,841	*	*xywh-#151:1690,2219,6058,933	*	*xywh-#48:7815,2218,6552,958	*
0GG	SAn-	0B-	SAn-	0G	San-	0d	San-
=2-	=2-	=2-	=2-	=2-	=2-	=2-	=2-
!	!	!	!	!	!	!LO:TX:t=P:problem=kreska pseudotaktowa	!
0D	.	1.A	.	0F#X	.	0d	-ctus
!	!	!LO:TX:t=P:problem=kreska pseudotaktowa	!	!	!	!	!
!	!	!LO:N:acc=#	!	!	!	!	!
.	.	2Bni\	.	.	.	.	.
=3-	=3-	=3-	=3-	=3-	=3-	=3-	=3-
*lig	*	*	*	*	*	*	*ij
!	!	!	!	!LO:TX:t=P:problem=kreska pseudotaktowa	!	!	!
1C	.	0c	.	1G	.	1.e	San-
1AA	.	.	.	1A	.	.	.
.	.	.	.	.	.	2f#Xi\	.
*Xlig	*	*	*	*	*	*	*
=4-	=4-	=4-	=4-	=4-	=4-	=4-	=4-
0GG	.	2.d\	.	2.B-\	.	1g	.
!	!	!	!	!LO:TX:t=P:problem=kreska pseudotaktowa	!	!	!
.	.	4c\	.	4A/	.	.	.
.	.	1B-y	.	1.G	.	1d	.
=5-	=5-	=5-	=5-	=5-	=5-	=5-	=5-
!	!	!	!	!	!	!LO:TX:t=P:problem=kreska pseudotaktowa	!
0D;	-ct(us).	0A;<	-ct(us)	.	.	0d;<	-ctus
*	*	*	*	*	*	*	*Xij
!	!	!	!	!LO:TX:t=P:problem=# below	!	!	!
.	.	.	.	4F#X/	.	.	.
.	.	.	.	4E/	.	.	.
!	!	!	!	!LO:N:vis=0	!	!	!
.	.	.	.	1F#X;	ct(us).	.	.
=6||	=6||	=6||	=6||	=6||	=6||	=6||	=6||
*	*	*M2/1	*	*M2/1	*	*	*
*	*	*met(C|)	*	*met(C|)	*	*	*
!	!	!LO:N:acc=#	!	!	!	!	!
!	!	!LO:TX:t=P:problem=# below	!	!	!	!	!
0GG	San-	0Bn	San-	0G	San-	0d	San-
=7-	=7-	=7-	=7-	=7-	=7-	=7-	=7-
!	!	!	!	!	!	!LO:TX:t=P:problem=kreska pseudotaktowa	!
1C	.	1c	.	1G	.	1e	.
1BB-	.	1.d	.	2.B-\	.	1f	.
!	!	!	!	!LO:TX:t=P:problem=kreska pseudotaktowa	!	!	!
.	.	.	.	4A/	.	.	.
=8-	=8-	=8-	=8-	=8-	=8-	=8-	=8-
0E-X	.	.	.	0G	.	0g	.
.	.	4c\	.	.	.	.	.
!	!	!LO:TX:t=P:problem=kreska pseudotaktowa	!	!	!	!	!
.	.	4B-y\	.	.	.	.	.
.	.	1c	.	.	.	.	.
=9-	=9-	=9-	=9-	=9-	=9-	=9-	=9-
!	!	!	!	!	!	!LO:TX:t=P:problem=# below	!
0D;<	-ct(us)	0d;<	-ct(us)	0A;<	-ctus.	0f#X;<	-ctus
=10||	=10||	=10||	=10||	=10||	=10||	=10||	=10||
*	*	*M2/1	*	*	*	*	*
*	*	*met(C|)	*	*	*	*	*
*lig	*	*	*	*	*	*lig	*
!	!	!LO:N:acc=#	!	!LO:LB:g=original	!	!	!
*	*	*	*	*xywh-#151:1648,3049,6148,816	*	*	*
1GG	San-	1Bn	San-	0G	San-	1d	San-
*	*	*	*	*	*	*	*
!	!	!LO:TX:t=P:problem=kreska pseudotaktowa	!	!	!	!	!
1C	.	0c	.	.	.	1e	.
*Xlig	*	*	*	*	*	*Xlig	*
=11-	=11-	=11-	=11-	=11-	=11-	=11-	=11-
!	!	!	!	!LO:TX:t=P:problem=kreska pseudotaktowa	!	!	!
1FF	.	.	.	1A	.	1f	.
2.GG/	.	2B-y\	.	1G	.	2d\	.
.	.	2.d\	.	.	.	4B-/	.
!	!	!	!	!	!	!LO:TX:t=P:problem=kreska pseudotaktowa	!
4AA/	.	.	.	.	.	4c/	.
=12-	=12-	=12-	=12-	=12-	=12-	=12-	=12-
*lig	*	*	*	*	*	*	*
1BB-	.	.	.	1F	.	4d/	.
.	.	4c\	.	.	.	4e\	.
.	.	4B-\	.	.	.	1f	.
.	.	4A/	.	.	.	.	.
*	*	*custos:G	*	*	*	*	*
!	!	!LO:LB:g=original	!	!	!	!	!
*	*	*xywh-#253:7831,2252,6391,927	*	*	*	*	*
1C	.	2G/	.	1.c	.	.	.
!	!	!	!	!	!	!LO:TX:t=P:problem=kreska pseudotaktowa	!
.	.	2A/	.	.	.	2e-X\	.
*Xlig	*	*	*	*	*	*	*
=13-	=13-	=13-	=13-	=13-	=13-	=13-	=13-
!LO:TX:t=P:problem=kreska pseudotaktowa	!	!LO:TX:t=P:problem=# below	!	!	!	!	!
0D	.	2F#X/	.	.	.	0d	.
!	!	!	!	!LO:TX:t=P:problem=kreska pseudotaktowa	!	!	!
.	.	1G	.	2B-\	.	.	.
.	.	.	.	1A	.	.	.
!	!	!LO:TX:t=P:problem=kreska pseudotaktowa	!	!	!	!	!
!	!	!LO:TX:t=P:problem=# below	!	!	!	!	!
.	.	2F#X/	.	.	.	.	.
=14-	=14-	=14-	=14-	=14-	=14-	=14-	=14-
!!LO:TX:t=P:problem:oddech/cezura na różnej wysokości
!	!	!	!	!LO:N:acc=#	!	!	!
2GG/	-ct(us)	4G,/	-ct(us)	2Bni\	-ct(us)	2d\,	-ctus
.	.	2G/	Do-	.	.	.	.
*custos:C	*	*	*	*	*	*	*
!LO:LB:g=orignal	!	!	!	!	!	!	!
*xywh-#352:1692,1732,5932,828	*	*	*	*	*	*	*
2.C/	Do-	.	.	2.c\	Do-	2.eny\	D(o-
.	.	4G/	-mi-	.	.	.	.
.	.	2G/	-nus	.	.	.	.
4C/	-mi-	.	.	4c\	-mi-	4e\	-mi)-
!LO:TX:t=P:problem=kreska pseudotaktowa	!	!	!	!LO:TX:t=P:problem=kreska pseudotaktowa	!	!LO:TX:t=P:problem=kreska pseudotaktowa	!
2C/	-nus	1c\	De-	2G/	-nus	2e\	-n(us)
*	*	*	*	*	*	*custos:f	*
=15-	=15-	=15-	=15-	=15-	=15-	=15-	=15-
!	!	!	!	!	!	!LO:LB:g=original	!
*	*	*	*	*	*	*xywh-#48:7815,3061,6338,871	*
1F	De-	.	.	1A	De-	1.f	De
.	.	1A	-us	.	.	.	.
!LO:TX:t=P:problem=kreska pseudotaktowa	!	!	!	!	!	!	!
1D	-us	.	.	1A	-us	.	.
!	!	!LO:TX:t=P::problem=kreska pseudotaktowa&colon;między nutą a kropką	!	!	!	!	!
.	.	[y2d\	ſab-	.	.	2f\	us
=16-	=16-	=16-	=16-	=16-	=16-	=16-	=16-
*lig	*	*	*	*lig	*	*	*
!	!	!LO:N:xstem:cue	!	!	!	!	!
1G	ſab-	4d\]	.	1B-y	ſab-	2g\	Sab-
.	.	4c\	.	.	.	.	.
!	!	!	!	!	!	!LO:TX:t=P:problem=kreska pseudotaktowa	!
.	.	1B-	.	.	.	2d\	.
1.F	.	.	.	1.c	.	1.f	.
.	.	4A/	.	.	.	.	.
!	!	!LO:TX:t=P:problem=kreska pseudotaktowa	!	!	!	!	!
.	.	4G/	.	.	.	.	.
*Xlig	*	*	*	*Xlig	*	*	*
=17-	=17-	=17-	=17-	=17-	=17-	=17-	=17-
.	.	2A/	.	.	.	.	.
!	!	!	!	!LO:TX:t=P:problem=kreska pseudotaktowa	!	!	!
2F\	ba-	2A/	-ba-	2c\	-ba-	2f\	-ba-
!	!	!LO:TX:t=P:problem=kreska pseudotaktowa	!	!	!	!LO:TX:t=P:problem=kreska pseudotaktowa	!
2BB-,/	-oth	1B-	-oth	2d\	-oth	1f	-oth
!LO:TX:t=P::problem=kreska pseudotaktowa&colon;między nutą a kropką	!	!	!	!	!	!	!
[y2B-\	Ple-	.	.	2.d\	Ple-	.	.
=18-	=18-	=18-	=18-	=18-	=18-	=18-	=18-
!LO:N:xstem:cue	!	!	!	!	!	!	!
4B-\]	.	0r	.	.	.	2r	.
4B-\	-ni	.	.	4d\	-ni	.	.
!LO:TX:t=P:problem=kreska pseudotaktowa	!	!	!	!LO:TX:t=P:problem=kreska pseudotaktowa	!	!	!
2A\	ſunt	.	.	2c\	ſunt	2.f\	Ple-
1B-	cae-	.	.	1d	cae-	.	.
.	.	.	.	.	.	4f\	-ni
!	!	!	!	!	!	!LO:TX:t=P:problem=kreska pseudotaktowa	!
.	.	.	.	.	.	2d\	ſunt
=19-	=19-	=19-	=19-	=19-	=19-	=19-	=19-
2F\	-li	2r	.	2A/	-li	1f	cae-
!	!	!	!	!LO:TX:t=P:problem=kreska pseudotaktowa	!	!	!
2A\	et	2.f\	Ple-	2c\	et	.	.
!LO:TX:t=P:problem=kreska pseudotaktowa	!	!	!	!	!	!	!
1G	ter-	.	.	2d\	ter-	2B-/	-li
.	.	4f\	-ni	.	.	.	.
!	!	!LO:TX:t=P:problem=kreska pseudotaktowa	!	!	!	!LO:TX:t=P:problem=kreska pseudotaktowa	!
.	.	2e\	ſunt	4c\	.	2B-/	et
.	.	.	.	4B-\	.	.	.
=20-	=20-	=20-	=20-	=20-	=20-	=20-	=20-
!	!	!	!	!LO:TX:t=P:problem=kreska pseudotaktowa	!	!	!
2F,\	-ra	1f	cae-	1A	-ra	2c/	ter-
2.F\	ple-	.	.	.	.	2c/	-ra
.	.	2c\	-li	2r	.	2r	.
4F\	-ni	.	.	.	.	.	.
!LO:TX:t=P:problem=kreska pseudotaktowa	!	!LO:TX:t=P:problem=kreska pseudotaktowa	!	!	!	!	!
2E\	ſunt	2e\	et	2.c\	Ple-	2.g\	glo-
=21-	=21-	=21-	=21-	=21-	=21-	=21-	=21-
1G	cae-	1d	ter-	.	.	.	.
.	.	.	.	4c\	-ni	4g\	-ri-
*	*	*	*	*custos:B	*	*	*
!	!	!	!	!LO:LB:g=original	!	!	!
*	*	*	*	*xywh-#151:1662,3782,6099,1078	*	*	*
!	!	!	!	!LO:TX:t=P:problem=kreska pseudotaktowa	!	!	!
!	!	!	!	!LO:N:acc=#	!	!LO:TX:t=P:problem=kreska pseudotaktowa	!
.	.	.	.	2Bn\	ſunt	2d\	-a
2C/	-li	2c,\	-ra	1c	cae-	2e\	tu-
*	*	*custos:c	*	*	*	*	*
!	!	!LO:LB:g=original	!	!	!	!	!
*	*	*xywh-#253:7918,3071,6293,881	*	*	*	*	*
!LO:TX:t=P:problem=kreska pseudotaktowa	!	!LO:TX:t=P::problem=kreska pseudotaktowa&colon;między nutą a kropką	!	!	!	!LO:TX:t=P:problem=kreska pseudotaktowa	!
2E\	et	[y2c\	ple-	.	.	2e\	-a
=22-	=22-	=22-	=22-	=22-	=22-	=22-	=22-
!	!	!LO:N:xstem:cue	!	!	!	!	!
1D	ter-	4c\]	.	2F/	-li	2r	.
.	.	4c\	-ni	.	.	.	.
!	!	!LO:TX:t=P:problem=kreska pseudotaktowa	!	!	!	!	!
!	!	!LO:N:acc=#	!	!LO:TX:t=P:problem=kreska pseudotaktowa	!	!	!
.	.	2Bn\	ſunt	2F/	et	2.f\	ple-
!LO:TX:t=P:problem=kreska pseudotaktowa	!	!	!	!	!	!	!
1C	-ra	1c	cae-	1G	ter-	.	.
.	.	.	.	.	.	4f\	-ni
!	!	!	!	!	!	!LO:TX:t=P:problem=kreska pseudotaktowa	!
.	.	.	.	.	.	2e\	ſunt
=23-	=23-	=23-	=23-	=23-	=23-	=23-	=23-
!	!	!	!	!LO:TX:t=P:problem=kreska pseudotaktowa	!	!	!
2r	.	2Fny/	-li	1A	-ra	1f	cae-
!	!	!LO:TX:t=P:problem=kreska pseudotaktowa	!	!	!	!	!
2.F\	ple-	2A/	et	.	.	.	.
.	.	1G	ter-	2r	.	2c/	-li
4F\	-ni	.	.	.	.	.	.
!LO:TX:t=P:problem=kreska pseudotaktowa	!	!	!	!	!	!LO:TX:t=P:problem=kreska pseudotaktowa	!
2E\	ſunt	.	.	2.c\	ple-	2e\	et
*custos:F	*	*	*	*	*	*custos:c	*
=24-	=24-	=24-	=24-	=24-	=24-	=24-	=24-
*	*	*	*	*	*	*	*
!LO:LB:g=original	!	!LO:TX:t=P:problem=kreska pseudotaktowa	!	!	!	!LO:LB:g=original	!
*xywh-#352:1665,2484,6050,821	*	*	*	*	*	*xywh-#48:7821,3782,6407,1448	*
1F	cae-	1A	-ra	.	.	2.c/	ter-
.	.	.	.	4c\	-ni	.	.
!	!	!	!	!LO:TX:t=P:problem=kreska pseudotaktowa	!	!	!
.	.	.	.	2A/	ſunt	.	.
.	.	.	.	.	.	4d\	.
2C,/	-li	2r	.	1c	cae-	4e\	.
.	.	.	.	.	.	4f\	.
*	*	*	*ij	*	*	*	*
!LO:TX:t=P:problem=kreska pseudotaktowa	!	!	!	!	!	!LO:TX:t=P:problem=kreska pseudotaktowa	!
2E\	et	2.c\	Ple-	.	.	2g\	.
=25-	=25-	=25-	=25-	=25-	=25-	=25-	=25-
1D	ter-	.	.	2F/	-li	1f	.
.	.	4c\	-ni	.	.	.	.
!	!	!LO:TX:t=P:problem=kreska pseudotaktowa	!	!LO:TX:t=P:problem=kreska pseudotaktowa	!	!	!
!	!	!LO:N:acc=#	!	!	!	!	!
.	.	2Bn\	ſunt	2F/	et	.	.
!LO:TX:t=P:problem=kreska pseudotaktowa	!	!	!	!	!	!	!
1C	-ra	1c	cae-	2G/	ter-	1e	.
.	.	.	.	1A\	-ra	.	.
=26-	=26-	=26-	=26-	=26-	=26-	=26-	=26-
2.D/	glo-	2F/	-li	.	.	2d,\	-ra
!	!	!LO:TX:t=P:problem=kreska pseudotaktowa	!	!	!	!	!
.	.	2A/	et	1d	glo-	2.f\	glo-
4D/	-ri-	.	.	.	.	.	.
2BB-/	-a	2G/	ter-	.	.	.	.
.	.	.	.	.	.	4f\	-ri-
!LO:TX:t=P:problem=kreska pseudotaktowa	!	!	!	!	!	!LO:TX:t=P:problem=kreska pseudotaktowa	!
2C/	.	2G/	-ra	2.c\	-ri-	2e\	-a
*	*	*	*Xij	*	*	*	*
=27-	=27-	=27-	=27-	=27-	=27-	=27-	=27-
*lig	*	*	*	*	*	*	*
1FF	tu-	4A/	glo-	.	.	1f	tu-
.	.	4B-y/	-ri-	4B-y\	-a	.	.
!	!	!	!	!LO:TX:t=P:problem=kreska pseudotaktowa	!	!	!
.	.	1c	-a	2A/	.	.	.
1GG	.	.	.	1G	tu-	1d	.
!	!	!LO:N:acc=#	!	!	!	!	!
.	.	2Bni\	tu-	.	.	.	.
*Xlig	*	*	*	*	*	*	*
=28-	=28-	=28-	=28-	=28-	=28-	=28-	=28-
!LO:TX:t=P:problem=kreska pseudotaktowa	!	!LO:TX:t=P:problem=kreska pseudotaktowa	!	!	!	!LO:TX:t=P:problem=kreska pseudotaktowa	!
1C	-a	1c	-a	2G,/	-a	1e	-a
!	!	!	!	!LO:TX:t=P:problem=kreska pseudotaktowa	!	!	!
.	.	.	.	2G/	O-	.	.
2r	.	2r	.	1.c	ſan-	2r	.
!	!	!LO:TX:t=P:problem=kreska pseudotaktowa	!	!	!	!LO:TX:t=P:problem=kreska pseudotaktowa	!
2C/	o-	2G/	O-	.	.	2e\	o-
=29-	=29-	=29-	=29-	=29-	=29-	=29-	=29-
1.F	ſan-	1.A	ſan-	.	.	1.f	ſan-
!	!	!	!	!LO:TX:t=P:problem=kreska pseudotaktowa	!	!	!
.	.	.	.	2A/	-na	.	.
.	.	.	.	1.c	in	.	.
!LO:TX:t=P:problem=kreska pseudotaktowa	!	!LO:TX:t=P:problem=kreska pseudotaktowa	!	!	!	!	!
2E\	-na	2G/	-na	.	.	2g\	-na
=30-	=30-	=30-	=30-	=30-	=30-	=30-	=30-
2F\	in	4A/	in	.	.	2f\	in
.	.	4A/	ex-	.	.	.	.
*	*	*custos:G	*	*	*	*	*
!	!	!LO:LB:g=original	!	!	!	!LO:TX:t=P:problem=kreska pseudotaktowa	!
*	*	*xywh-#253:7918,3866,6120,1014	*	*	*	*	*
2G\	ex-	1G	-cel-	2B-\	ex-	2d\	ex-
1D	-cel-	.	.	1A	-cel-	1d	-cel-
!	!	!LO:TX:t=P:problem=kreska pseudotaktowa	!	!	!	!	!
!	!	!LO:TX:t=P:problem=# below	!	!	!	!	!
.	.	2F#X/	-ſis	.	.	.	.
=31-	=31-	=31-	=31-	=31-	=31-	=31-	=31-
!	!	!	!	!LO:TX:t=P:problem=kreska pseudotaktowa	!	!	!
!	!	!	!	!LO:N:acc=#	!	!	!
!LO:TX:t=P:problem=kreska pseudotaktowa	!	!LO:TX:t=P:problem=kreska pseudotaktowa	!	!	!	!	!
1GG	-ſis	1G	.	1Bni	-ſis	2d\	-ſis
!	!	!	!	!	!	!LO:TX:t=P:problem=kreska pseudotaktowa	!
.	.	.	.	.	.	2d\	o-
*	*	*	*	*custos:B	*	*	*
!	!	!	!	!LO:PB:g=original	!	!	!
*	*	*	*	*xywh-#151:7822,595,6514,912	*	*	*
2r	.	2r	.	2r	.	1.g	ſan-
*	*	*	*	*	*	*	*
!	!	!	!	!LO:TX:t=P:problem=kreska pseudotaktowa	!	!	!
!	!	!	!	!LO:N:acc=#	!	!	!
2GG/	o-	2d\	O-	2Bni\	O-	.	.
=32-	=32-	=32-	=32-	=32-	=32-	=32-	=32-
1.C	ſan-	1.e	ſan-	1.c	ſan-	.	.
!	!	!	!	!	!	!LO:TX:t=P:problem=kreska pseudotaktowa	!
.	.	.	.	.	.	2e\	-na
.	.	.	.	.	.	1.g	in
!LO:TX:t=P:problem=kreska pseudotaktowa	!	!	!	!	!	!	!
!LO:TX:t=P:problem=# below	!	!	!	!	!	!	!
!LO:N:acc=#	!	!LO:TX:t=P:problem=kreska pseudotaktowa	!	!LO:TX:t=P:problem=kreska pseudotaktowa	!	!	!
2BBn/	-na	2d\	-na	2d\	-na	.	.
=33-	=33-	=33-	=33-	=33-	=33-	=33-	=33-
2C/	in	4e\	in	2c\	in	.	.
.	.	4e\	ex-	.	.	.	.
!LO:TX:t=P:problem=kreska pseudotaktowa	!	!	!	!LO:TX:t=P:problem=kreska pseudotaktowa	!	!LO:TX:t=P:problem=kreska pseudotaktowa	!
2D/	ex-	1d	-cel-	2A/	ex-	2f\	ex-
1AA	-cel-	.	.	1A	-cel-	1e	-cel-
!	!	!LO:TX:t=P:problem=kreska pseudotaktowa	!	!	!	!	!
!	!	!LO:SIC:v:s=2c#\	!	!	!	!	!
.	.	2c\	.	.	.	.	.
=34-	=34-	=34-	=34-	=34-	=34-	=34-	=34-
!	!	!	!	!	!	!LO:TX:t=P:problem=kreska pseudotaktowa	!
!LO:TX:t=P:problem=kreska pseudotaktowa	!	!LO:TX:t=P:problem=kreska pseudotaktowa	!	!	!	!	!
1D	-ſis	1d	-ſis	2A/	-ſis	1f	-ſis
*	*	*	*	*	*ij	*	*
!	!	!	!	!LO:TX:t=P:problem=kreska pseudotaktowa	!	!	!
.	.	.	.	2A/	O-	.	.
*	*	*	*	*	*	*custos:f	*
!	!	!	!	!	!	!LO:PB:g=original	!
*	*	*	*	*	*	*xywh-#49:1428,490,6345,1087	*
2r	.	2r	.	1.d	ſan-	2r	.
*	*	*	*ij	*	*	*	*ij
!	!	!	!	!	!	!LO:TX:t=P:problem=kreska pseudotaktowa	!
!	!	!LO:TX:t=P:problem=kreska pseudotaktowa	!	!	!	!	!
2D/	O-	2A/	O-	.	.	2f#Xi\	o-
*custos:G	*	*	*	*	*	*	*
=35-	=35-	=35-	=35-	=35-	=35-	=35-	=35-
!LO:LB:g=original	!	!	!	!	!	!	!
*xywh-#352:1644,3229,6078,842	*	*	*	*	*	*	*
1.G	ſan-	1.B-y	ſan-	.	.	1.g	ſan-
.	.	.	.	2B-y\	-na	.	.
.	.	.	.	1.d	in	.	.
!	!	!LO:TX:t=P:problem=kreska pseudotaktowa	!	!	!	!LO:TX:t=P:problem=kreska pseudotaktowa	!
2F#Xi\	-na	2A/	-na	.	.	2a\	-na
=36-	=36-	=36-	=36-	=36-	=36-	=36-	=36-
2G\	in	2B-/	in	.	.	2g\	in
!LO:TX:t=P:problem=kreska pseudotaktowa	!	!LO:TX:t=P:problem=kreska pseudotaktowa	!	!LO:TX:t=P:problem=kreska pseudotaktowa	!	!	!
2C/	ex-	2G/	ex-	2c\	ex-	2e-X\	ex-
0D	-cel-	2F#X/	-cel-	2B-\	-cel-	0d	-cel-
.	.	1G/	.	4A/	.	.	.
.	.	.	.	4G/	.	.	.
=37-	=37-	=37-	=37-	=37-	=37-	=37-	=37-
.	.	.	.	1A	.	.	.
.	.	2F#X/	.	.	.	.	.
!	!	!	!	!LO:N:acc=#	!	!LO:N:vis=0	!
!LO:N:vis=0	!	!	!	!LO:N:vis=0	!	!	!
1GG;	-ſis.	1G;;l	-ſis	1Bni;	-ſis	1d;<	-ſis
*	*	*	*Xij	*	*Xij	*	*Xij
==	==	==	==	==	==	==	==
*-	*-	*-	*-	*-	*-	*-	*-
!!!system-decoration: [(s1,s2,s3,s4)]
!!!RDF**kern: l = terminal long
!!!RDF**kern: i = editorial accidental
!!!RDF**kern: > = above
!!!RDF**kern: < = below
!!!ENC: Katarzyna Serwa
!!!END: 2022-01-10
!!!ENC: Filip Voros
!!!END: 2022-01-10
!!!ENC-iiif: Natalia Wrzos
!!!END-iiif: 2022-09-02
